X: 2156
T: August Bank Holiday, The
R: jig
M: 6/8
K: Ddorian
|:G|Ad{f}d EFG|AdB cAG|f2d edc|ded cAG|
FEF GFG|Ade {a}fed|cAF EFG|AFD {F}D2:|
c|{f}d2e fef|dAd fed|cBc ecA|GEG cde|
d2e fef|dAd fed|cBc ege|ded {f}d2c|
{f}d2e fef|dAd fed|cBc ecA|GEC CDE|
F2D EFG|Ade fed|cAF EFG|AFD {F}D3||

